packages/kaspersky-hexa-ui-icons/src/iconsSVGs/16/SSDDrive.svg

<svg width="16" height="16" viewBox="0 0 16 16" fill="none" xmlns="http://www.w3.org/2000/svg">
<path fill-rule="evenodd" clip-rule="evenodd" d="M2.68311 3.6001C2.68311 2.35746 3.69046 1.3501 4.93311 1.3501H11.0664C12.3091 1.3501 13.3164 2.35746 13.3164 3.6001V12.4001C13.3164 13.6427 12.3091 14.6501 11.0664 14.6501H4.9331C3.69046 14.6501 2.68311 13.6427 2.68311 12.4001V3.6001ZM8.64979 13.3501H10.0164V12.8001C10.0164 12.7173 9.94928 12.6501 9.86644 12.6501H8.64979V13.3501ZM7.34979 12.6501V13.3501H5.98311V12.8001C5.98311 12.7173 6.05026 12.6501 6.13311 12.6501H7.34979ZM9.86644 11.3501C10.6673 11.3501 11.3164 11.9993 11.3164 12.8001V13.3169C11.7198 13.2071 12.0164 12.8382 12.0164 12.4001V3.6001C12.0164 3.07543 11.5911 2.6501 11.0664 2.6501H4.93311C4.40844 2.6501 3.98311 3.07543 3.98311 3.6001V12.4001C3.98311 12.8382 4.27972 13.2071 4.68311 13.3169V12.8001C4.68311 11.9993 5.33229 11.3501 6.13311 11.3501H9.86644Z" fill="black"/>
</svg>

<svg xmlns="http://www.w3.org/2000/svg" width="16" height="16" fill="none" viewBox="0 0 16 16"><path fill="#000" fill-rule="evenodd" d="M2.6833 3.6c0-1.2427 1.0074-2.25 2.25-2.25h6.1334c1.2426 0 2.25 1.0073 2.25 2.25v8.8c0 1.2426-1.0074 2.25-2.25 2.25H4.9333c-1.2426 0-2.25-1.0074-2.25-2.25zM8.65 13.35h1.3667v-.55a.15.15 0 0 0-.15-.15H8.65zm-1.3-.7v.7H5.9833v-.55a.15.15 0 0 1 .15-.15zm2.5167-1.3c.8008 0 1.45.6492 1.45 1.45v.5167c.4033-.1097.7-.4786.7-.9167V3.6a.95.95 0 0 0-.95-.95H4.9333a.95.95 0 0 0-.95.95v8.8c0 .4381.2966.807.7.9167V12.8c0-.8008.6492-1.45 1.45-1.45z"/></svg>
